X:7392
T:The Tailor's Waltz
O:england
M:3/4
L:1/8
C:Juergen Gier
K:Dmin
F2E2|:D3 A,DE|F3 EFG|ABgfed|^c3 bag|eA^ceag|
fedcBg|edcBAB|GAFGEF|D3 A,DE|F3 EFG|ABgfed|
^c3 bag|fagfed|^ceAAB^c|1d2z dAF|D3 A,FE:|2d2z2d^c|
d2z2fg|:a2a^gaf|d2efga|bagfed|^ceA^cef|g2gfge|
^cdefga|b2a2g2|fagfe^c|d2dADE|F3 EFG|ABgfed|
^c3 bag|fagfed|^ceAA=B^c|d2dfe^c|1d2zefg:|2dBAGFE||
